X: 42
T:Lannigan's Ball
M:6/8
L:1/8
Q:120
R:Jig
K:Em
B|"Em"EDE G2A|B2A Bcd|"D"DED F2G|ABA AFD|
"Em"EDE G2A|B2A Bcd|edB "D"cBA|"Em"BEE E2::
d|"Em"e2f gfe|"D"fag fed|"Em"e2f gfe|"Bm"fBB B3|
"Em"e2f gfe|"D"fag fed|"Em"edB "D"cBA|"Em"BEE E2:|
